assets/static/img/icon/eye.svg

<svg width="24" height="24" viewBox="0 0 24 24" fill="none" xmlns="http://www.w3.org/2000/svg">
	<path d="M12 6.03479C6.88461 6.03479 2.89299 9.95608 1.53662 11.9167C2.98987 13.9754 7.059 17.7987 12.2907 17.7987C17.1736 17.7987 21.204 13.8774 22.4634 11.9167C21.1071 9.95608 17.1155 6.03479 12 6.03479Z" stroke="#e8eaed" />
	<path fill-rule="evenodd" clip-rule="evenodd" d="M9.16753 9.73554L8.48323 9.30936C7.95351 10.0398 7.64062 10.9413 7.64062 11.9167C7.64062 14.3531 9.59256 16.3282 12.0004 16.3282C14.4082 16.3282 16.3601 14.3531 16.3601 11.9167C16.3601 9.48033 14.4082 7.50525 12.0004 7.50525C11.3074 7.50525 10.6522 7.66885 10.0703 7.95997L10.4305 8.6779C10.9049 8.44045 11.4382 8.30733 12.0004 8.30733C13.9522 8.30733 15.5553 9.91172 15.5553 11.9167C15.5553 13.9217 13.9522 15.5261 12.0004 15.5261C10.0486 15.5261 8.4455 13.9217 8.4455 11.9167C8.4455 11.0947 8.71498 10.3399 9.16753 9.73554Z" fill="#e8eaed" />
	<path d="M13.0504 11.9167C13.0504 12.5132 12.5742 12.9862 11.9995 12.9862C11.4249 12.9862 10.9487 12.5132 10.9487 11.9167C10.9487 11.3203 11.4249 10.8473 11.9995 10.8473C12.5742 10.8473 13.0504 11.3203 13.0504 11.9167Z" stroke="#e8eaed" />
</svg>

<svg xmlns="http://www.w3.org/2000/svg" width="24" height="24" fill="none"><path stroke="#e8eaed" d="M12 6.035c-5.115 0-9.107 3.921-10.463 5.882 1.453 2.058 5.522 5.882 10.754 5.882 4.883 0 8.913-3.922 10.172-5.882C21.107 9.957 17.116 6.035 12 6.035Z"/><path fill="#e8eaed" fill-rule="evenodd" d="m9.168 9.736-.685-.427a4.43 4.43 0 0 0-.842 2.608c0 2.436 1.952 4.411 4.36 4.411 2.407 0 4.36-1.975 4.36-4.411 0-2.437-1.953-4.412-4.36-4.412a4.3 4.3 0 0 0-1.93.455l.36.718a3.5 3.5 0 0 1 1.57-.37c1.951 0 3.554 1.604 3.554 3.609s-1.603 3.61-3.555 3.61c-1.951 0-3.555-1.605-3.555-3.61 0-.822.27-1.577.723-2.181" clip-rule="evenodd"/><path stroke="#e8eaed" d="M13.05 11.917a1.06 1.06 0 0 1-1.05 1.07 1.06 1.06 0 0 1-1.051-1.07c0-.597.476-1.07 1.05-1.07s1.051.473 1.051 1.07Z"/></svg>
